X: 30089
T: Oigfhear A Chuil Duinn
R: strathspey
M: 4/4
K: Eminor
B>G E<G e4|E>G B>G A<F E2|d>B B<d e>B A<G|A>B d>B e<B A2|
B>G E<G e4|E>G B>G A<F E2|E2 G>G A>G F<A|E2 G>B d>B B<d||
e>f g>e d>B A<G|A>B d>B e<B A2|B>G E<G e4|E>G B>G A<F E2|
d>B B<d e>B A<G|A>B d>B e<B A2|B>G E<G e4|E>G B>G A<F E2||

